svgs/duotone/message-question.svg

<svg xmlns="http://www.w3.org/2000/svg" viewBox="0 0 512 512"><!-- Font Awesome Pro 6.0.0-alpha2 by @fontawesome - https://fontawesome.com License - https://fontawesome.com/license (Commercial License) --><defs><style>.fa-secondary{opacity:.4}</style></defs><path d="M448 0H64C28.625 0 0 28.623 0 63.998V351.99C0 387.363 28.625 415.988 64 415.988H160V499.986C160 509.859 171.25 515.484 179.125 509.609L304 415.988H448C483.375 415.988 512 387.363 512 351.99V63.998C512 28.623 483.375 0 448 0ZM249.999 320C235.375 320 224 308.625 224 294S235.375 268 249.999 268C264.625 268 276 279.375 276 294S264.625 320 249.999 320ZM307.666 203.391L269.334 226.521V228.174C269.334 238.912 260.166 248 249.334 248C238.5 248 229.334 238.912 229.334 228.174V214.957C229.334 208.348 232.666 201.738 239.334 197.607L286.834 169.521C292.666 166.217 296 160.434 296 153.826C296 143.912 287.666 135.652 277.666 135.652H234.334C224.334 135.652 216 143.912 216 153.826C216 164.564 206.834 173.652 196 173.652S176 164.564 176 153.826C176 121.607 201.834 96 234.334 96H277.666C310.166 96 336 121.607 336 153.826C336 173.652 325.166 192.652 307.666 203.391Z" class="fa-secondary"/><path d="M249.999 268C235.375 268 224 279.375 224 294S235.375 320 249.999 320C264.625 320 276 308.625 276 294S264.625 268 249.999 268ZM277.666 96H234.334C201.834 96 176 121.607 176 153.826C176 164.564 185.166 173.652 196 173.652S216 164.564 216 153.826C216 143.912 224.334 135.652 234.334 135.652H277.666C287.666 135.652 296 143.912 296 153.826C296 160.434 292.666 166.217 286.834 169.521L239.334 197.607C232.666 201.738 229.334 208.348 229.334 214.957V228.174C229.334 238.912 238.5 248 249.334 248C260.166 248 269.334 238.912 269.334 228.174V226.521L307.666 203.391C325.166 192.652 336 173.652 336 153.826C336 121.607 310.166 96 277.666 96Z" class="fa-primary"/></svg>

<svg xmlns="http://www.w3.org/2000/svg" viewBox="0 0 512 512"><!--! Font Awesome Pro 6.3.0 by @fontawesome - https://fontawesome.com License - https://fontawesome.com/license (Commercial License) Copyright 2023 Fonticons, Inc. --><defs><style>.fa-secondary{opacity:.4}</style></defs><path class="fa-primary" d="M249.1 268C235.4 268 224 279.4 224 294S235.4 320 249.1 320C264.6 320 276 308.6 276 294S264.6 268 249.1 268zM277.7 96H234.3C201.8 96 176 121.6 176 153.8c0 10.74 9.166 19.83 20 19.83S216 164.6 216 153.8c0-9.914 8.334-18.17 18.33-18.17h43.33c10 0 18.33 8.26 18.33 18.17c0 6.607-3.334 12.39-9.166 15.7L239.3 197.6c-6.668 4.131-10 10.74-10 17.35v13.22c0 10.74 9.166 19.83 20 19.83c10.83 0 20-9.088 20-19.83V226.5l38.33-23.13C325.2 192.7 336 173.7 336 153.8C336 121.6 310.2 96 277.7 96z"/><path class="fa-secondary" d="M448 0H64C28.63 0 0 28.62 0 63.1v287.1C0 387.4 28.63 415.1 64 415.1h96v83.1c0 9.873 11.25 15.52 19.12 9.649L304 415.1H448c35.38 0 64-28.63 64-63.1V63.1C512 28.62 483.4 0 448 0zM249.1 320C235.4 320 224 308.6 224 294S235.4 268 249.1 268C264.6 268 276 279.4 276 294S264.6 320 249.1 320zM307.7 203.4l-38.33 23.13v1.652c0 10.74-9.168 19.83-20 19.83c-10.83 0-20-9.088-20-19.83V214.1c0-6.609 3.332-13.22 10-17.35l47.5-28.09C292.7 166.2 296 160.4 296 153.8c0-9.914-8.334-18.17-18.33-18.17H234.3c-10 0-18.33 8.26-18.33 18.17c0 10.74-9.166 19.83-20 19.83S176 164.6 176 153.8C176 121.6 201.8 96 234.3 96h43.33C310.2 96 336 121.6 336 153.8C336 173.7 325.2 192.7 307.7 203.4z"/></svg>
